dist/svg/static/logbook-small.svg

<svg xmlns="http://www.w3.org/2000/svg" width="24" height="24" viewBox="0 0 24 24"><g fill="none" stroke="currentColor" stroke-miterlimit="10"><circle cx="13.5" cy="11.548" r="1.702"/><path d="M13.5 13.249V16.5m5.888-5h-4.186m-3.404 0H7.612m9.088 5a5.833 5.833 0 0 0 2.8-4.983 6 6 0 1 0-12 0 5.822 5.822 0 0 0 2.812 4.983H16.7z"/><path d="M1 18.5h5m-5-13h5m16.5 16a1 1 0 0 1-1 1h-18v-21h18a1 1 0 0 1 1 1v19z"/></g></svg>

<?xml version="1.0" encoding="UTF-8" standalone="no"?>
<svg width="24px" height="24px" viewBox="0 0 24 24" version="1.1" xmlns="http://www.w3.org/2000/svg" xmlns:xlink="http://www.w3.org/1999/xlink">
    <!-- Generator: sketchtool 46.2 (44496) - http://www.bohemiancoding.com/sketch -->
    <title>logbook-small</title>
    <desc>Created with sketchtool.</desc>
    <defs></defs>
    <g id="icons-published" stroke="none" stroke-width="1" fill="none" fill-rule="evenodd">
        <g id="briefing" transform="translate(-3236.000000, -922.000000)"></g>
        <g id="logbook-small" stroke="#000000">
            <circle id="Oval" cx="13.5" cy="11.5" r="1.7"></circle>
            <path d="M13.5,13.2 L13.5,16.5 L13.5,13.2 Z M19.4,11.5 L15.2,11.5 L19.4,11.5 Z M11.8,11.5 L7.6,11.5 L11.8,11.5 Z M16.7,16.5 C18.4,15.4 19.5,13.6 19.5,11.5 C19.5,8.2 16.8,5.5 13.5,5.5 C10.2,5.5 7.5,8.2 7.5,11.5 C7.5,13.5 8.6,15.4 10.3,16.5 L16.7,16.5 Z" id="Shape"></path>
            <path d="M1,18.5 L6,18.5 L1,18.5 Z M1,5.5 L6,5.5 L1,5.5 Z M22.5,21.5 C22.5,22.1 22.1,22.5 21.5,22.5 L3.5,22.5 L3.5,1.5 L21.5,1.5 C22.1,1.5 22.5,1.9 22.5,2.5 L22.5,21.5 Z" id="Shape"></path>
        </g>
    </g>
</svg>
